Dominus_Dark_Funeral/22/apps/gnome-disks.svg

<svg xmlns="http://www.w3.org/2000/svg" width="24" height="24" viewBox="0 0 6.35 6.35"><path d="M1.36.26C.99.26.99.68.99.68v4.99s0 .42.37.42h3.33l-.26-.26c-.11.04-.23.07-.35.07C3.48 5.9 3 5.42 3 4.83c0-.13.03-.25.07-.36l.59.6c.12.11.3.11.43 0l.22-.23a.3.3 0 0 0 0-.43l-.58-.58c.1-.04.22-.07.35-.07a1.07 1.07 0 0 1 1 1.43l.28.27V.68s0-.42-.37-.42zm1.81.37a1.46 1.46 0 0 1 0 2.9H1.72V2.09c0-.8.65-1.45 1.46-1.45zm0 .73a.73.73 0 1 0 0 1.45.73.73 0 0 0 0-1.45z" fill="#e6e6e6"/></svg>

<?xml version="1.0" encoding="UTF-8" standalone="no"?>
<svg
   xmlns:dc="http://purl.org/dc/elements/1.1/"
   xmlns:cc="http://creativecommons.org/ns#"
   xmlns:rdf="http://www.w3.org/1999/02/22-rdf-syntax-ns#"
   xmlns:svg="http://www.w3.org/2000/svg"
   xmlns="http://www.w3.org/2000/svg"
   xmlns:sodipodi="http://sodipodi.sourceforge.net/DTD/sodipodi-0.dtd"
   xmlns:inkscape="http://www.inkscape.org/namespaces/inkscape"
   width="24"
   height="24"
   viewBox="0 0 6.35 6.35"
   version="1.1"
   id="svg4"
   sodipodi:docname="gnome-disks.svg"
   inkscape:version="0.92.4 (5da689c313, 2019-01-14)">
  <metadata
     id="metadata10">
    <rdf:RDF>
      <cc:Work
         rdf:about="">
        <dc:format>image/svg+xml</dc:format>
        <dc:type
           rdf:resource="http://purl.org/dc/dcmitype/StillImage" />
        <dc:title></dc:title>
      </cc:Work>
    </rdf:RDF>
  </metadata>
  <defs
     id="defs8" />
  <sodipodi:namedview
     pagecolor="#ffffff"
     bordercolor="#666666"
     borderopacity="1"
     objecttolerance="10"
     gridtolerance="10"
     guidetolerance="10"
     inkscape:pageopacity="0"
     inkscape:pageshadow="2"
     inkscape:window-width="1138"
     inkscape:window-height="480"
     id="namedview6"
     showgrid="false"
     inkscape:zoom="9.8333333"
     inkscape:cx="1.0677966"
     inkscape:cy="12"
     inkscape:window-x="0"
     inkscape:window-y="25"
     inkscape:window-maximized="0"
     inkscape:current-layer="svg4" />
  <path
     d="m 1.36,0.26 c -0.37,0 -0.37,0.42 -0.37,0.42 v 4.99 c 0,0 0,0.42 0.37,0.42 H 4.69 L 4.43,5.83 C 4.32,5.87 4.2,5.9 4.08,5.9 3.48,5.9 3,5.42 3,4.83 3,4.7 3.03,4.58 3.07,4.47 l 0.59,0.6 c 0.12,0.11 0.3,0.11 0.43,0 L 4.31,4.84 a 0.3,0.3 0 0 0 0,-0.43 L 3.73,3.83 C 3.83,3.79 3.95,3.76 4.08,3.76 a 1.07,1.07 0 0 1 1,1.43 L 5.36,5.46 V 0.68 c 0,0 0,-0.42 -0.37,-0.42 z m 1.81,0.37 a 1.46,1.46 0 0 1 0,2.9 H 1.72 V 2.09 c 0,-0.8 0.65,-1.45 1.46,-1.45 z m 0,0.73 a 0.73,0.73 0 1 0 0,1.45 0.73,0.73 0 0 0 0,-1.45 z"
     id="path2"
     inkscape:connector-curvature="0"
     style="fill:#e6e6e6" />
</svg>
